svgs/sharp-solid/paint-roller.svg

<svg xmlns="http://www.w3.org/2000/svg" viewBox="0 0 512 512"><!--! Font Awesome Pro 6.6.0 by @fontawesome - https://fontawesome.com License - https://fontawesome.com/license (Commercial License) Copyright 2024 Fonticons, Inc. --><path d="M0 0L416 0l0 64 0 64 0 64L0 192 0 0zM256 320l32 0 0 192-128 0 0-192 32 0 0-64 0-32 32 0 224 0 0-64 0-32 0-64 32 0 32 0 0 32 0 160 0 32-32 0-224 0 0 32z"/></svg>

<svg xmlns="http://www.w3.org/2000/svg" viewBox="0 0 512 512"><!--! Font Awesome Pro 6.4.2 by @fontawesome - https://fontawesome.com License - https://fontawesome.com/license (Commercial License) Copyright 2023 Fonticons, Inc. --><path d="M0 0H416V64v64 64H0V0zM256 320h32V512H160V320h32V256 224h32H448V160 128 64h32 32V96 256v32H480 256v32z"/></svg>
